icons/domestic_worker_alt.svg

<svg width="48" height="48" viewBox="0 0 48 48" fill="none" xmlns="http://www.w3.org/2000/svg">
<path fill-rule="evenodd" clip-rule="evenodd" d="M16.5 14C14.2909 14 12.5 12.2091 12.5 10C12.5 7.79086 14.2909 6 16.5 6C18.7091 6 20.5 7.79086 20.5 10C20.5 12.2091 18.7091 14 16.5 14ZM16.5 12C15.3954 12 14.5 11.1046 14.5 10C14.5 8.89543 15.3954 8 16.5 8C17.6046 8 18.5 8.89543 18.5 10C18.5 11.1046 17.6046 12 16.5 12Z" fill="black"/>
<path d="M10 22C10 20.8954 10.8954 20 12 20V24C10.8954 24 10 23.1046 10 22Z" fill="black"/>
<path fill-rule="evenodd" clip-rule="evenodd" d="M34.2048 27.7596C36.3573 27.2627 38.5051 28.6048 39.002 30.7573L42.001 39.3017L30.3085 42.0011L29.2583 33.0068C28.7614 30.8543 30.1035 28.7065 32.256 28.2095L30.5095 20.6445C29.9734 21.4609 29.0497 22 28 22H23V39C23 40.6569 21.6569 42 20 42C19.0444 42 18.1931 41.5532 17.6438 40.8571C17.2406 40.3463 17 39.7012 17 39L17 31H16L16 39C16 39.7012 15.7594 40.3463 15.3562 40.8571C14.8069 41.5532 13.9556 42 13 42C11.3431 42 10 40.6569 10 39V27.7178C8.43707 26.9978 6 24.91 6 21.5714C6 17.3636 9.87118 16 10.9845 16H28C28.5608 16 29.0856 16.1539 29.5346 16.4217L28.4318 11.6452C28.3076 11.1071 28.6431 10.5702 29.1813 10.4459C29.7194 10.3217 30.2564 10.6572 30.3806 11.1953L34.2048 27.7596ZM32.7059 30.1583L34.6547 29.7084C35.7309 29.4599 36.8048 30.131 37.0533 31.2072L31.2071 32.5569C30.9586 31.4807 31.6297 30.4068 32.7059 30.1583ZM37.7077 33.1087L31.4524 34.5529L32.0359 39.5497L32.7817 39.3775L32.1069 36.4544L34.0556 36.0045L34.7305 38.9276L39.3738 37.8556L37.7077 33.1087ZM12 26.4371L10.8369 25.9013C9.6932 25.3744 8 23.8541 8 21.5714C8 20.1769 8.60532 19.3326 9.30787 18.7824C9.67929 18.4915 10.0818 18.2843 10.4344 18.1529C10.7375 18.04 10.9284 18.0101 10.9772 18.0025C10.9907 18.0004 10.9933 18 10.9845 18H14V27H20V18H28C28.5523 18 29 18.4477 29 19C29 19.5523 28.5523 20 28 20H21V39C21 39.5523 20.5523 40 20 40C19.4477 40 19 39.5523 19 39L19 29H14L14 39C14 39.5523 13.5523 40 13 40C12.4477 40 12 39.5523 12 39V26.4371ZM18 21V18H16V21H18Z" fill="black"/>
</svg>

<svg
  xmlns="http://www.w3.org/2000/svg"
  width="24"
  height="24"
  viewBox="0 0 24 24"
  fill="none"
  stroke="currentColor"
  stroke-width="2"
  stroke-linecap="round"
  stroke-linejoin="round"
>
  <path
    fill-rule="evenodd"
    d="M16.5 14a4 4 0 1 1 0-8 4 4 0 0 1 0 8m0-2a2 2 0 1 1 0-4 2 2 0 0 1 0 4"
    clip-rule="evenodd"
  />
  <path d="M10 22a2 2 0 0 1 2-2v4a2 2 0 0 1-2-2" />
  <path
    fill-rule="evenodd"
    d="M34.205 27.76a4 4 0 0 1 4.797 2.997l2.999 8.545-11.692 2.7-1.05-8.995a4 4 0 0 1 2.997-4.797l-1.747-7.565A3 3 0 0 1 28 22h-5v17a3 3 0 1 1-6 0v-8h-1v8c0 .701-.24 1.346-.644 1.857A3 3 0 0 1 10 39V27.718c-1.563-.72-4-2.808-4-6.147C6 17.364 9.871 16 10.985 16H28c.56 0 1.086.154 1.535.422l-1.103-4.777a1 1 0 0 1 1.949-.45zm-1.5 2.398 1.95-.45a2 2 0 0 1 2.398 1.5l-5.846 1.349a2 2 0 0 1 1.499-2.399m5.003 2.95-6.256 1.445.584 4.997.746-.172-.675-2.924 1.949-.45.675 2.924 4.643-1.072zM12 26.439l-1.163-.537C9.693 25.374 8 23.854 8 21.571c0-1.394.605-2.238 1.308-2.789a4.3 4.3 0 0 1 1.126-.63c.304-.112.494-.142.543-.15q.02-.002.008-.002H14v9h6v-9h8a1 1 0 1 1 0 2h-7v19a1 1 0 1 1-2 0V29h-5v10a1 1 0 1 1-2 0zM18 21v-3h-2v3z"
    clip-rule="evenodd"
  />
</svg>
